flutter/assets/locker.svg

<svg width="53.997" height="73.004" version="1.1" viewBox="0 0 14.287 19.316" xml:space="preserve" xmlns="http://www.w3.org/2000/svg"><g transform="translate(-57.064 -134.73)"><g transform="matrix(.99998 0 0 .99998 57.064 134.73)"><path d="m10.598 19.315h-6.908c-2.038 0-3.69-1.636-3.69-3.655v-5.129c0-2.016 1.652-3.651 3.69-3.651h6.907c2.038 0 3.69 1.636 3.69 3.653v5.13c0 2.018-1.652 3.653-3.69 3.653z" fill="#caf3ff"/><path d="m12.7 10.583h-1.323v-5.063c0-2.264-1.852-4.196-4.233-4.196-2.382 0-4.234 1.932-4.234 4.196v4.006h-1.323v-4.007c0-3.044 2.383-5.519 5.557-5.519 3.175 0 5.556 2.476 5.556 5.519z" fill="#caf3ff"/><path d="m5.556 11.758c0-0.795 0.71-1.44 1.588-1.44 0.877 0 1.587 0.645 1.587 1.44 0 0.624-0.438 1.156-1.05 1.356l0.8 3.026h-2.675l0.8-3.026c-0.612-0.2-1.05-0.73-1.05-1.356z" fill="#167399"/></g></g></svg>

<svg xmlns="http://www.w3.org/2000/svg" viewBox="0 0 14.287 19.315" height="73" width="54">
  <g fill="none">
    <path d="M10.598 19.315H3.69C1.652 19.315 0 17.679 0 15.66v-5.129C0 8.515 1.652 6.88 3.69 6.88h6.907c2.038 0 3.69 1.636 3.69 3.653v5.13c0 2.018-1.652 3.653-3.69 3.653z" fill="#caf3ff"/>
    <path d="M12.7 10.583h-1.323V5.52c0-2.264-1.852-4.196-4.233-4.196-2.382 0-4.234 1.932-4.234 4.196v4.006H1.587V5.519C1.587 2.475 3.97 0 7.144 0 10.319 0 12.7 2.476 12.7 5.519z" fill="#caf3ff"/>
    <path d="M5.556 11.758c0-.795.71-1.44 1.588-1.44.877 0 1.587.645 1.587 1.44 0 .624-.438 1.156-1.05 1.356l.8 3.026H5.806l.8-3.026c-.612-.2-1.05-.73-1.05-1.356z" fill="#167399"/>
  </g>
</svg>
